!!!OTL: Dawo ge
!!!ARE: Asia, China, .........
!! Jiang Mindun, .............. S. 55
!!!SCT: C1302
!!!YEM: Copyright 1995, estate of Helmut Schaffrath.
**kern
*ICvox
*Ivox
*M2/4
*k[]
*C:
{16ee
16ee
16ee
16dd
16cc
8cc
16a
=1
8.cc
16a
8g
8ee}
=2
{16gg
16ee
16ee
16dd
16cc
16cc
8a
=3
8.cc
16a
8g
16cc
16a}
=4
{16cc
16cc
8a
16ee
16ee
16dd
16a
=5
8.cc
16a
8g
16ee
16dd}
=6
{16gg
16ee
16ee
16dd
16a
16cc
8a
=7
16cc
16cc
16cc
16dd
16ee
16dd
16ee
16ee}
=8
{16a
16cc
8a
16gg
16ee
8dd
=9
4dd
16dd
16ee
8cc}
=10
{16ee
16ee
16ee
16dd
8cc
8dd
=11
8.cc
16a
8g
8ee}
=12
{16cc
16cc
16cc
16dd
16ee
16dd
16ee
16cc
=13
2dd
=14
4.r}
==
!!!AGN: Haozi
!! Das Original enthÑlt ein 1/32 in Takt 10, und in der Rhythmus-
!!    Notation (beide letzten Takte), die hier Åbergangen werden.
!!    Takt 3 bis Ende wird wiederholt. Die Klammer 1-6, 7 am Ende wurde
!!    gespart. Die Notation geht gleich in Nr. 7 Åber!! +++ Die Phrasen-
!!    einteilung erfolgte nach musikalischen Kriterien, nach funktionalen
!!!ONB: ESAC (Essen Associative Code) Database: CHINA
!!!AMT: simple duple
!!!AIN: vox
!!!EED: Helmut Schaffrath
!!!EEV: 1.0
*-
